X:1
T:Title
%%score { 1 | 2 }
L:1/8
M:4/4
K:A
V:1 treble nm="Grand Piano"
V:2 bass 
V:1
 z4 z2[Q:1/4=100] [A,C]>[B,D] | [CE]>[CE] [DF]>[DF] [CE]2 [DF]>[DG] | [CA]4 [EB]2 [EA]>B | %3
[M:3/4] c6 |[M:1/4] C>[B,D] |[M:4/4] [CE]>[CE] [DF]>[DF] [CE]2 [DF]>[DG] | [CA]4 B2 A>G | %7
[M:3/4] [CA]6 |[M:1/4] G>A |[M:4/4] B>B B>B B2 [EA]>B |[M:3/4] c>c c>c c2 |[M:1/4] c>c | %12
[M:4/4] B>B B>B B2 [^DA]>[B,DF] | [B,EG]4 [B,^DF]2[K:bass] [F,D]>[A,DF] |[M:3/4] [G,E]6 | %15
[M:1/4] [E,A,C]>[E,B,D] |[M:4/4][K:treble] [CE]>[CE] [DF]>[DF] [CE]2 [DF]>[DG] | %17
 [CA]4 [EB]2 [EA]>B |[M:3/4] c6 |[M:1/4] C>[B,D] |[M:4/4] [CE]>[CE] [DF]>[DF] [CE]2 [DF]>[DG] | %21
 [CA]4 B2 A>G |[M:7/4] [CA]6 z2 z2 z4 |] %23
V:2
 z4 z2 [A,,E,]>[A,,E,] | [A,,A,]>[A,,A,] [A,,A,]>[A,,A,] [A,,A,]2 [D,A,]>[B,,E,] | %2
 [A,,E,]4 [E,G,]2 [C,A,]>[E,G,E] |[M:3/4] [A,E]6 |[M:1/4] [A,,E,A,]>[A,,E,] | %5
[M:4/4] [A,,A,]>[A,,A,] [A,,A,]>[A,,A,] [A,,A,]2 [D,A,]>[B,,E,] | [A,,E,]4 [D,F,D]2 [E,C]>[E,B,] | %7
[M:3/4] [A,,E,A,]6 |[M:1/4] [E,B,E]>[E,A,E] | %9
[M:4/4] [E,G,E]>[E,G,E] [E,G,E]>[E,G,E] [E,G,E]2 [C,A,]>[E,A,D] | %10
[M:3/4] [A,E]>[A,E] [A,E]>[A,E] [A,E]2 |[M:1/4] [A,E]>[A,E] | %12
[M:4/4] [E,G,E]>[E,G,E] [E,G,E]>[E,G,E] [E,G,E]2 [B,,F,]>B,, | E,4 B,,2 B,,>B,, |[M:3/4] E,6 | %15
[M:1/4] A,,>A,, |[M:4/4] [A,,A,]>[A,,A,] [A,,A,]>[A,,A,] [A,,A,]2 [D,A,]>[B,,E,] | %17
 [A,,E,]4 [E,G,]2 [C,A,]>[E,G,E] |[M:3/4] [A,E]6 |[M:1/4] [A,,E,A,]>[A,,E,] | %20
[M:4/4] [A,,A,]>[A,,A,] [A,,A,]>[A,,A,] [A,,A,]2 [D,A,]>[B,,E,] | [A,,E,]4 [D,F,D]2 [E,C]>[E,B,] | %22
[M:7/4] [A,,E,A,]6 z2 z2 z4 |] %23

